svgs/sharp-light/jug-bottle.svg

<svg xmlns="http://www.w3.org/2000/svg" viewBox="0 0 640 512"><!--! Font Awesome Pro 6.6.0 by @fontawesome - https://fontawesome.com License - https://fontawesome.com/license (Commercial License) Copyright 2024 Fonticons, Inc. --><path d="M192 32l0 32-64 0 0-32 64 0zM96 32l0 32L64 64l0 32 32 0 32 0 64 0 32 0 32 0 0-32-32 0 0-32 0-32L192 0 128 0 96 0l0 32zM416 175.1l0 35.3L455.4 192l113.2 0L608 210.5l0 32.3-14.6 14.6L570.7 280l22.6 22.6L608 317.3l0 37.5-14.6 14.6L570.7 392l22.6 22.6L608 429.3l0 37.5L594.7 480 416 480l0 32 192 0 32-32 0-64-1.4-1.4L616 392l22.6-22.6L640 368l0-64-1.4-1.4L616 280l22.6-22.6L640 256l0-65.9L575.7 160l-127.5 0L416 175.1zM384 512l0-32 0-289.9 0-30.1 0-32-32 0-224 0C57.3 128 0 185.3 0 256L0 480l0 32 32 0 320 0 32 0zM128 160l224 0 0 320L32 480l0-224c0-53 43-96 96-96zm80 48l0 16 0 160 0 16 16 0 64 0 16 0 0-16 0-160 0-16-16 0-64 0-16 0zm32 32l32 0 0 128-32 0 0-128zM448 64l0 16 0 48 32 0 0-32 64 0 0 32 32 0 0-48 0-16-16 0-96 0-16 0z"/></svg>

<svg xmlns="http://www.w3.org/2000/svg" viewBox="0 0 640 512"><!--! Font Awesome Pro 6.4.2 by @fontawesome - https://fontawesome.com License - https://fontawesome.com/license (Commercial License) Copyright 2023 Fonticons, Inc. --><path d="M192 32V64H128V32h64zM96 32V64H64V96H96h32 64 32 32V64H224V32 0H192 128 96V32zM416 175.1v35.3L455.4 192H568.6L608 210.5v32.3l-14.6 14.6L570.7 280l22.6 22.6L608 317.3v37.5l-14.6 14.6L570.7 392l22.6 22.6L608 429.3v37.5L594.7 480H416v32H608l32-32V416l-1.4-1.4L616 392l22.6-22.6L640 368V304l-1.4-1.4L616 280l22.6-22.6L640 256V190.1L575.7 160H448.3L416 175.1zM384 512V480 190.1 160 128H352 128C57.3 128 0 185.3 0 256V480v32H32 352h32zM128 160H352V480H32V256c0-53 43-96 96-96zm80 48v16V384v16h16 64 16V384 224 208H288 224 208zm32 32h32V368H240V240zM448 64V80v48h32V96h64v32h32V80 64H560 464 448z"/></svg>
